X: 12
T: Mark in the Dumps
R: jig
M: 6/8
L: 1/8
Z: 2010,2014 John Chambers <jc:trillian.mit.edu>
B: Longman ed. "Twenty Four Country Dances", p.30 London 1770
K: G
|: GAB D3  | GAB D3 | EFG AGF | G3 G,3 :|
|: cdd ccc | BBB A3 | GAB DEF | G3 G,3 :|
% - - - - - - - - - - - - - - - - - - - - - - - - -
%%begintext align
%% 1st and 2d Cu: foot all four & turn their partner half way with the Right hand .|
%% foot again and turn their partner Back with Left .|.
%% Lead one Cu: down :|.
%% up again and cast of :|:
%% set Contrary Corners [dont] Turn .||.
%% Lead out Sides :||:
%%endtext
% - - - - - - - - - - - - - - - - - - - - - - - - -
